dist/img/lightbulb.svg

<svg width="128" height="173" viewBox="0 0 128 173" fill="none" xmlns="http://www.w3.org/2000/svg">
<path d="M111.481 66.1811C111.481 39.7789 90.2664 18.3589 64.0427 18.2183C37.8656 18.0778 16.239 39.5915 16.0915 65.9155C16.0371 76.4889 19.384 86.2657 25.0916 94.2153C34.6119 107.467 40.4127 123.046 42.3152 139.281L42.6336 141.967H84.9471L85.2577 139.281C87.1913 122.781 93.4813 107.194 102.932 93.5671C108.321 85.805 111.481 76.364 111.481 66.1811Z" fill="#EFEEEC"/>
<path d="M84.9471 143.138H42.6258C42.0356 143.138 41.5386 142.693 41.4687 142.108L41.1581 139.421C39.2556 123.14 33.3694 107.74 24.1519 94.9025C18.0639 86.4297 14.8723 76.403 14.9344 65.9077C15.082 38.9121 36.9726 17.047 63.7942 17.047C63.8796 17.047 63.965 17.047 64.0582 17.047C90.8566 17.1876 112.654 39.2323 112.654 66.1811C112.654 76.2781 109.625 85.9846 103.902 94.2387C94.3122 108.068 88.2707 123.686 86.4303 139.414L86.1197 142.1C86.0343 142.693 85.5373 143.138 84.9471 143.138ZM43.6663 140.796H83.9143L84.1084 139.14C85.9954 123.03 92.1767 107.038 101.984 92.8956C107.436 85.0319 110.317 75.7939 110.317 66.1732C110.317 40.513 89.5597 19.5224 64.0427 19.3819C38.3781 19.2804 17.396 40.1303 17.2563 65.9234C17.2019 75.911 20.2382 85.4614 26.0312 93.5281C35.4816 106.686 41.5153 122.46 43.4644 139.14L43.6663 140.796Z" fill="black"/>
<path d="M42.6257 140.702C42.6257 137.149 52.0995 134.267 63.7864 134.267C75.4733 134.267 84.9471 137.149 84.9471 140.702V146.207H42.6257V140.702Z" fill="#EFEEEC"/>
<path d="M84.9471 147.379H42.6257C41.9812 147.379 41.4609 146.856 41.4609 146.207V140.702C41.4609 135.704 52.6897 133.096 63.7864 133.096C74.8831 133.096 86.1119 135.712 86.1119 140.702V146.207C86.1119 146.848 85.5916 147.379 84.9471 147.379ZM43.7906 145.036H83.7745V140.702C83.7745 138.555 75.9858 135.439 63.7786 135.439C51.5715 135.439 43.7828 138.555 43.7828 140.702V145.036H43.7906Z" fill="black"/>
<path d="M42.6257 146.379C42.6257 142.826 52.0995 139.945 63.7864 139.945C75.4733 139.945 84.9471 142.826 84.9471 146.379V151.885H42.6257V146.379Z" fill="#EFEEEC"/>
<path d="M84.9471 153.056H42.6257C41.9812 153.056 41.4609 152.533 41.4609 151.885V146.379C41.4609 141.381 52.6897 138.773 63.7864 138.773C74.8831 138.773 86.1119 141.389 86.1119 146.379V151.885C86.1119 152.533 85.5916 153.056 84.9471 153.056ZM43.7906 150.713H83.7745V146.379C83.7745 144.232 75.9858 141.116 63.7786 141.116C51.5715 141.116 43.7828 144.232 43.7828 146.379V150.713H43.7906Z" fill="black"/>
<path d="M42.6257 152.056C42.6257 148.503 52.0995 145.622 63.7864 145.622C75.4733 145.622 84.9471 148.503 84.9471 152.056V157.562H42.6257V152.056Z" fill="#EFEEEC"/>
<path d="M84.9471 158.733H42.6257C41.9812 158.733 41.4609 158.21 41.4609 157.562V152.056C41.4609 147.059 52.6897 144.45 63.7864 144.45C74.8831 144.45 86.1119 147.066 86.1119 152.056V157.562C86.1119 158.21 85.5916 158.733 84.9471 158.733ZM43.7906 156.39H83.7745V152.056C83.7745 149.909 75.9858 146.793 63.7786 146.793C51.5715 146.793 43.7828 149.909 43.7828 152.056V156.39H43.7906Z" fill="black"/>
<path d="M63.8796 151.307C52.1927 151.205 42.6957 154.001 42.6646 157.554L55.3921 168.276L72.0721 168.424L84.9859 157.929C85.0092 154.376 75.5588 151.408 63.8796 151.307Z" fill="#EFEEEC"/>
<path d="M72.0644 169.587H72.0566L55.3766 169.439C55.1048 169.439 54.8485 169.338 54.6389 169.166L41.9114 158.444C41.6474 158.218 41.4921 157.89 41.4921 157.538C41.5387 152.54 52.7907 150.034 63.8797 150.128C69.6416 150.174 75.0696 150.916 79.1619 152.197C83.7435 153.634 86.1585 155.617 86.1352 157.929C86.1352 158.28 85.9722 158.608 85.7004 158.827L72.7866 169.322C72.5924 169.502 72.3362 169.587 72.0644 169.587ZM55.8192 167.104L71.6606 167.245L83.6969 157.46C83.2931 156.625 81.7711 155.477 78.4708 154.438C74.5881 153.22 69.4008 152.525 63.8641 152.478C52.5111 152.361 44.9554 155.008 43.9382 157.109L55.8192 167.104Z" fill="black"/>
<path d="M72.074 168.414C72.0908 166.49 68.3704 164.898 63.7643 164.858C59.1583 164.817 55.4107 166.344 55.394 168.267C55.3772 170.191 59.0976 171.783 63.7037 171.823C68.3097 171.864 72.0573 170.337 72.074 168.414Z" fill="#EFEEEC"/>
<path d="M63.8719 173C63.8098 173 63.7476 173 63.6855 173C58.9642 172.961 54.1962 171.321 54.2195 168.268C54.2428 165.214 59.0496 163.645 63.7632 163.7C66.1394 163.723 68.3913 164.137 70.0997 164.863C72.8409 166.034 73.2369 167.604 73.2292 168.432C73.2059 171.446 68.5311 173 63.8719 173ZM63.5768 166.034C59.2282 166.034 56.5647 167.479 56.5569 168.283C56.5491 169.096 59.2592 170.618 63.7088 170.657C68.1661 170.728 70.8995 169.228 70.8995 168.408C70.8995 168.088 70.3715 167.518 69.1912 167.011C67.7779 166.409 65.7977 166.05 63.7476 166.034C63.6933 166.034 63.6312 166.034 63.5768 166.034Z" fill="black"/>
<path d="M53.707 135.79C53.0625 135.79 52.5422 135.267 52.5422 134.619V112.832C52.5422 112.184 53.0625 111.661 53.707 111.661C54.3515 111.661 54.8718 112.184 54.8718 112.832V134.619C54.8718 135.267 54.3515 135.79 53.707 135.79Z" fill="black"/>
<path d="M73.8737 135.79C73.2291 135.79 72.7089 135.267 72.7089 134.619V112.832C72.7089 112.184 73.2291 111.661 73.8737 111.661C74.5182 111.661 75.0385 112.184 75.0385 112.832V134.619C75.0385 135.267 74.5104 135.79 73.8737 135.79Z" fill="black"/>
<path d="M53.707 112.832L58.7468 116.104L63.7865 112.832L68.8262 116.104L73.8737 112.832" fill="#EFEEEC"/>
<path d="M58.7467 117.275C58.5293 117.275 58.3041 117.213 58.1177 117.088L53.078 113.816L54.3438 111.848L58.7545 114.714L63.1652 111.848C63.5535 111.598 64.0427 111.598 64.431 111.848L68.8417 114.714L73.2525 111.848L74.5182 113.816L69.4785 117.088C69.0902 117.338 68.601 117.338 68.2127 117.088L63.802 114.222L59.3913 117.088C59.1894 117.213 58.9642 117.275 58.7467 117.275Z" fill="black"/>
<path d="M63.7865 10.1517C63.1419 10.1517 62.6216 9.62846 62.6216 8.98032V1.17135C62.6216 0.523201 63.1419 0 63.7865 0C64.431 0 64.9513 0.523201 64.9513 1.17135V8.98032C64.9513 9.62846 64.431 10.1517 63.7865 10.1517Z" fill="black"/>
<path d="M27.825 23.505C27.4911 23.505 27.1649 23.3644 26.932 23.0833L21.9388 17.1016C21.5273 16.6097 21.5894 15.8678 22.0786 15.454C22.5678 15.0401 23.3055 15.1025 23.7171 15.5945L28.7102 21.5762C29.1218 22.0682 29.0597 22.81 28.5705 23.2239C28.3608 23.4113 28.089 23.505 27.825 23.505Z" fill="black"/>
<path d="M119.425 98.3618C119.231 98.3618 119.029 98.315 118.843 98.2057L112.118 94.3012C111.559 93.981 111.373 93.2626 111.691 92.7003C112.009 92.1381 112.724 91.9507 113.283 92.2708L120.008 96.1753C120.567 96.4955 120.753 97.2139 120.435 97.7762C120.225 98.151 119.829 98.3618 119.425 98.3618Z" fill="black"/>
<path d="M8.81532 56.9743C8.74543 56.9743 8.68331 56.9665 8.61342 56.9586L0.964519 55.5999C0.327757 55.4906 -0.0915732 54.8815 0.0171422 54.2411C0.125858 53.6008 0.731557 53.1791 1.36832 53.2884L9.01722 54.6472C9.65398 54.7565 10.0733 55.3656 9.9646 56.006C9.86365 56.576 9.36666 56.9743 8.81532 56.9743Z" fill="black"/>
<path d="M119.185 56.4667C118.633 56.4667 118.136 56.0684 118.035 55.4984C117.927 54.8581 118.346 54.2568 118.983 54.1396L126.632 52.7809C127.268 52.6637 127.866 53.0932 127.983 53.7336C128.092 54.3739 127.672 54.9752 127.035 55.0923L119.387 56.4511C119.324 56.4589 119.255 56.4667 119.185 56.4667Z" fill="black"/>
<path d="M8.91625 98.807C8.51245 98.807 8.12418 98.5961 7.90675 98.2213C7.58837 97.659 7.77474 96.9484 8.33384 96.6204L15.0587 92.716C15.6178 92.388 16.3244 92.5832 16.6506 93.1454C16.9689 93.7077 16.7826 94.4183 16.2235 94.7463L9.49865 98.6508C9.32005 98.7601 9.11815 98.807 8.91625 98.807Z" fill="black"/>
<path d="M99.8644 23.1692C99.6004 23.1692 99.3364 23.0755 99.1189 22.8959C98.6297 22.482 98.5598 21.7402 98.9792 21.2482L103.972 15.2665C104.384 14.7746 105.122 14.7043 105.611 15.126C106.1 15.5399 106.17 16.2817 105.751 16.7737L100.757 22.7553C100.532 23.0287 100.198 23.1692 99.8644 23.1692Z" fill="black"/>
</svg>

<svg width="128" height="173" fill="none" xmlns="http://www.w3.org/2000/svg"><path d="M111.481 66.181c0-26.402-21.215-47.822-47.438-47.963-26.177-.14-47.804 21.374-47.952 47.697-.054 10.574 3.293 20.35 9 28.3 9.52 13.252 15.322 28.831 17.224 45.066l.319 2.686h42.313l.31-2.686c1.934-16.5 8.224-32.087 17.675-45.714 5.389-7.762 8.549-17.203 8.549-27.386z" fill="#EFEEEC"/><path d="M84.947 143.138H42.626c-.59 0-1.087-.445-1.157-1.03l-.31-2.687c-1.903-16.281-7.79-31.681-17.007-44.518-6.088-8.473-9.28-18.5-9.218-28.995.148-26.996 22.039-48.861 48.86-48.861h.264c26.799.14 48.596 22.185 48.596 49.134 0 10.097-3.029 19.804-8.752 28.058-9.59 13.829-15.631 29.447-17.472 45.175l-.31 2.686a1.196 1.196 0 01-1.173 1.038zm-41.28-2.342h40.247l.194-1.656c1.887-16.11 8.069-32.102 17.876-46.244 5.452-7.864 8.333-17.102 8.333-26.723 0-25.66-20.757-46.65-46.274-46.791-25.665-.102-46.647 20.748-46.787 46.541-.054 9.988 2.982 19.538 8.775 27.605 9.45 13.158 15.484 28.932 17.433 45.612l.202 1.656z" fill="#000"/><path d="M42.626 140.702c0-3.553 9.474-6.435 21.16-6.435 11.687 0 21.161 2.882 21.161 6.435v5.505H42.626v-5.505z" fill="#EFEEEC"/><path d="M84.947 147.379H42.626a1.167 1.167 0 01-1.165-1.172v-5.505c0-4.998 11.229-7.606 22.325-7.606 11.097 0 22.326 2.616 22.326 7.606v5.505c0 .641-.52 1.172-1.165 1.172zm-41.156-2.343h39.984v-4.334c0-2.147-7.79-5.263-19.996-5.263-12.208 0-19.996 3.116-19.996 5.263v4.334h.008z" fill="#000"/><path d="M42.626 146.379c0-3.553 9.474-6.434 21.16-6.434 11.687 0 21.161 2.881 21.161 6.434v5.506H42.626v-5.506z" fill="#EFEEEC"/><path d="M84.947 153.056H42.626a1.166 1.166 0 01-1.165-1.171v-5.506c0-4.998 11.229-7.606 22.325-7.606 11.097 0 22.326 2.616 22.326 7.606v5.506c0 .648-.52 1.171-1.165 1.171zm-41.156-2.343h39.984v-4.334c0-2.147-7.79-5.263-19.996-5.263-12.208 0-19.996 3.116-19.996 5.263v4.334h.008z" fill="#000"/><path d="M42.626 152.056c0-3.553 9.474-6.434 21.16-6.434 11.687 0 21.161 2.881 21.161 6.434v5.506H42.626v-5.506z" fill="#EFEEEC"/><path d="M84.947 158.733H42.626a1.166 1.166 0 01-1.165-1.171v-5.506c0-4.997 11.229-7.606 22.325-7.606 11.097 0 22.326 2.616 22.326 7.606v5.506c0 .648-.52 1.171-1.165 1.171zm-41.156-2.343h39.984v-4.334c0-2.147-7.79-5.263-19.996-5.263-12.208 0-19.996 3.116-19.996 5.263v4.334h.008z" fill="#000"/><path d="M63.88 151.307c-11.687-.102-21.184 2.694-21.215 6.247l12.727 10.722 16.68.148 12.914-10.495c.023-3.553-9.427-6.521-21.106-6.622z" fill="#EFEEEC"/><path d="M72.064 169.587h-.007l-16.68-.148c-.272 0-.529-.101-.738-.273L41.91 158.444a1.19 1.19 0 01-.419-.906c.047-4.998 11.299-7.504 22.388-7.41 5.762.046 11.19.788 15.282 2.069 4.581 1.437 6.996 3.42 6.973 5.732 0 .351-.163.679-.435.898l-12.913 10.495c-.195.18-.45.265-.723.265zm-16.245-2.483l15.842.141 12.036-9.785c-.404-.835-1.926-1.983-5.226-3.022-3.883-1.218-9.07-1.913-14.607-1.96-11.353-.117-18.909 2.53-19.926 4.631l11.881 9.995z" fill="#000"/><path d="M72.074 168.414c.017-1.924-3.704-3.516-8.31-3.556-4.606-.041-8.353 1.486-8.37 3.409-.017 1.924 3.704 3.516 8.31 3.556 4.606.041 8.353-1.486 8.37-3.409z" fill="#EFEEEC"/><path d="M63.872 173h-.187c-4.72-.039-9.489-1.679-9.466-4.732.024-3.054 4.83-4.623 9.544-4.568 2.376.023 4.628.437 6.337 1.163 2.74 1.171 3.137 2.741 3.13 3.569-.024 3.014-4.699 4.568-9.358 4.568zm-.295-6.966c-4.349 0-7.012 1.445-7.02 2.249-.008.813 2.702 2.335 7.152 2.374 4.457.071 7.19-1.429 7.19-2.249 0-.32-.528-.89-1.708-1.397-1.413-.602-3.393-.961-5.443-.977h-.171zm-9.87-30.244a1.166 1.166 0 01-1.165-1.171v-21.787c0-.648.52-1.171 1.165-1.171s1.165.523 1.165 1.171v21.787c0 .648-.52 1.171-1.165 1.171zm20.167 0a1.166 1.166 0 01-1.165-1.171v-21.787c0-.648.52-1.171 1.165-1.171.644 0 1.165.523 1.165 1.171v21.787c0 .648-.529 1.171-1.165 1.171z" fill="#000"/><path d="M53.707 112.832l5.04 3.272 5.04-3.272 5.04 3.272 5.047-3.272" fill="#EFEEEC"/><path d="M58.747 117.275a1.14 1.14 0 01-.63-.187l-5.039-3.272 1.266-1.968 4.41 2.866 4.411-2.866c.389-.25.878-.25 1.266 0l4.41 2.866 4.412-2.866 1.265 1.968-5.04 3.272a1.16 1.16 0 01-1.265 0l-4.411-2.866-4.41 2.866a1.23 1.23 0 01-.645.187zm5.039-107.123a1.167 1.167 0 01-1.164-1.172V1.171c0-.648.52-1.171 1.164-1.171.645 0 1.165.523 1.165 1.171v7.81c0 .647-.52 1.17-1.164 1.17zM27.825 23.505c-.334 0-.66-.14-.893-.422l-4.993-5.981a1.178 1.178 0 01.14-1.648 1.162 1.162 0 011.638.14l4.993 5.982c.412.492.35 1.234-.14 1.648-.21.187-.481.281-.745.281zm91.6 74.857c-.194 0-.396-.047-.582-.156l-6.725-3.905a1.176 1.176 0 01-.427-1.6 1.162 1.162 0 011.592-.43l6.725 3.904c.559.32.745 1.039.427 1.601-.21.375-.606.586-1.01.586zM8.815 56.974c-.07 0-.132-.007-.202-.015l-7.648-1.36a1.17 1.17 0 01-.948-1.358 1.166 1.166 0 011.351-.953l7.65 1.36a1.173 1.173 0 01-.202 2.327zm110.37-.507a1.173 1.173 0 01-.202-2.327l7.649-1.36a1.164 1.164 0 011.351.954 1.175 1.175 0 01-.948 1.358l-7.648 1.36a1.646 1.646 0 01-.202.015zM8.916 98.807c-.404 0-.792-.21-1.01-.586a1.178 1.178 0 01.428-1.6l6.725-3.905a1.157 1.157 0 011.592.43 1.178 1.178 0 01-.427 1.6l-6.725 3.905a1.1 1.1 0 01-.583.156zM99.864 23.17c-.264 0-.528-.095-.745-.274a1.17 1.17 0 01-.14-1.648l4.993-5.982a1.156 1.156 0 011.639-.14c.489.414.559 1.156.14 1.648l-4.994 5.981a1.154 1.154 0 01-.893.414z" fill="#000"/></svg>
